dist/images/header/basket.svg

<svg width="24" height="22" viewBox="0 0 24 22" fill="none" xmlns="http://www.w3.org/2000/svg">
<g clip-path="url(#clip0)">
<path d="M9.76074 20.35C9.76074 20.9946 9.25114 21.5 8.64355 21.5C8.03597 21.5 7.52637 20.9946 7.52637 20.35C7.52637 19.7053 8.03597 19.2 8.64355 19.2C9.25114 19.2 9.76074 19.7053 9.76074 20.35Z" fill="#BDBDBD" stroke="white"/>
<path d="M19.5859 20.35C19.5859 20.9946 19.0763 21.5 18.4688 21.5C17.8612 21.5 17.3516 20.9946 17.3516 20.35C17.3516 19.7053 17.8612 19.2 18.4688 19.2C19.0763 19.2 19.5859 19.7053 19.5859 20.35Z" fill="#BDBDBD" stroke="white"/>
<path d="M22.4475 2.78267L22.4559 2.79268C22.4783 2.8194 22.495 2.8517 22.5041 2.88735C22.5128 2.92179 22.514 2.9579 22.5076 2.99293L20.2306 13.2531L20.2305 13.2536C20.2184 13.3085 20.1884 13.3553 20.1482 13.3873C20.1083 13.4191 20.0603 13.4347 20.0124 13.4336L20.0124 13.4334H20H8.90247H8.71922L8.57937 13.5518L6.84719 15.0185L6.77753 15.0775L6.7332 15.1572C6.6511 15.305 6.60809 15.4712 6.60766 15.6398C6.60723 15.8084 6.6494 15.9748 6.73074 16.123C6.81211 16.2712 6.93024 16.3968 7.07468 16.4866C7.21918 16.5764 7.38476 16.6271 7.55537 16.6331L7.56407 16.6334H7.57278H19.6837C19.7385 16.6334 19.793 16.6555 19.8349 16.6982C19.877 16.7412 19.9025 16.8016 19.9025 16.8667C19.9025 16.9318 19.877 16.9923 19.8349 17.0353C19.793 17.078 19.7385 17.1001 19.6837 17.1001H7.68778H7.67517L7.66257 17.1007C7.43414 17.1122 7.20593 17.0691 6.99604 16.9743L6.79031 17.4301L6.99604 16.9743C6.78765 16.8803 6.60259 16.7377 6.45596 16.557C6.25322 16.2926 6.14561 15.9632 6.15344 15.6247C6.16118 15.2901 6.28122 14.9699 6.49127 14.7172L6.55383 14.6533L7.71326 13.6868L7.96949 13.4732L7.87064 13.1546L4.57158 2.52124L4.49379 2.27051L4.24322 2.19217L1.6633 1.38563C1.66325 1.38561 1.6632 1.3856 1.66315 1.38558C1.60917 1.36861 1.5609 1.32945 1.53165 1.27312C1.5022 1.21642 1.49571 1.14899 1.51451 1.08659C1.53324 1.0244 1.57445 0.975429 1.62556 0.947793C1.65087 0.934112 1.67811 0.925882 1.70575 0.923207C1.73338 0.920533 1.76135 0.923414 1.78819 0.931827C1.78819 0.931828 1.78819 0.931829 1.7882 0.931831L4.73506 1.85583L4.73601 1.85612C4.76852 1.86625 4.79911 1.88453 4.8248 1.91034C4.85031 1.93598 4.87018 1.96827 4.8819 2.0049C4.882 2.00522 4.88211 2.00553 4.88221 2.00585L8.16608 12.6146L8.27508 12.9667H8.64372H19.425H19.8277L19.9135 12.5733L21.8326 3.77326L21.9648 3.16673H21.344H8.15389L8.00524 2.70006H22.2834C22.3137 2.70044 22.3439 2.70756 22.372 2.72135L22.5921 2.2724L22.372 2.72135C22.4005 2.73532 22.4265 2.756 22.4477 2.78257L22.4475 2.78267Z" fill="#BDBDBD" stroke="white"/>
</g>
<defs>
<clipPath id="clip0">
<rect width="23" height="22" fill="white" transform="translate(0.5)"/>
</clipPath>
</defs>
</svg>

<svg width="24" height="22" fill="none" xmlns="http://www.w3.org/2000/svg"><g clip-path="url(#clip0)" fill="#BDBDBD" stroke="#fff"><path d="M9.76 20.35c0 .645-.509 1.15-1.116 1.15-.608 0-1.118-.505-1.118-1.15 0-.645.51-1.15 1.118-1.15.607 0 1.117.505 1.117 1.15zm9.826 0c0 .645-.51 1.15-1.117 1.15-.608 0-1.117-.505-1.117-1.15 0-.645.51-1.15 1.117-1.15s1.117.505 1.117 1.15zm2.862-17.567l.008.01a.24.24 0 01.052.2l-2.277 10.26h0a.235.235 0 01-.083.134.21.21 0 01-.136.047h0H8.72l-.14.118-1.732 1.466-.07.06-.044.08a1 1 0 00.342 1.329c.144.09.31.14.48.146h12.128c.055 0 .11.023.152.065a.241.241 0 01.067.169.241.241 0 01-.067.168.212.212 0 01-.151.065H7.663a1.442 1.442 0 01-.667-.126l-.206.456.206-.456a1.48 1.48 0 01-.54-.417 1.477 1.477 0 01.035-1.84l.063-.064 1.16-.966.255-.214-.098-.318L4.57 2.52l-.077-.25-.25-.079-2.58-.806s0 0 0 0a.225.225 0 01-.132-.113.25.25 0 01-.017-.186.233.233 0 01.11-.14.211.211 0 01.163-.015l2.947.924h.001c.033.01.063.029.089.054a.236.236 0 01.057.095s0 0 0 0l3.284 10.61.11.352h11.552l.085-.394 1.92-8.8.132-.606H8.154L8.005 2.7h14.278c.03 0 .06.008.089.021l.22-.449-.22.45a.222.222 0 01.076.06h0z"/></g><defs><clipPath id="clip0"><path fill="#fff" transform="translate(.5)" d="M0 0h23v22H0z"/></clipPath></defs></svg>
